X: 8341
T: Cotton Tree, The
R: reel
M: 4/4
K: Eminor
BE~E2 BEGA|~B2AB GEDB|dG~G2 dG (3Bcd|~e2dB ABGA|
BE~E2 BEGA|~B2AB GEDB|dG~G2 dG (3Bcd|ezdB ABGA|
BE~E2 BEGA|~B2AB GEDB|dG~G2 dG (3Bcd|ezdB ABG2-|
GBEG BEGA|~B2AB GEDB|dG~G2 DG (3Bcd|ezdB A~B2A||
dG~G2 DGBe|dG (3Bcd gfge|dG~G2 ~B3G|ABcd edeg|
dz~G2 DGBe|dG (3Bcd gfge|dG~G2 ~B3G|ABcd edeg|
dz~G2 DGBe|dG (3Bcd gfge|dG~G2 ~B3G|ABcd edeg|
abab bge2|gdeg dzBG|~A2AG AGAB|c6 z2||

